X: 41199
T: Triumph, The
R: barndance
M: 4/4
K: Gmajor
z|G2 B2 ABcA|G2 g2 efge|d2 B2 dcBA|G2 B2 G4|
d2 B2 dcBA|G2 g2 efge|d2 B2 dcBA|G2 B2 G3||
|:z|A3 c B2 d2|A3 c B2 d2|A3 c B2 d2|dcBA B2 G2|
A2 Ac B2 d2|A2 Ac B2 d2|A2 Ac B2 d2|dcBA G3:|
|:z|B2 Bc d2 cB|A2 AB cB A2|B2 Bc d2 g2|dcBA B2 G2|
B2 Bc d2 cB|A2 AB cB A2|B2 Bc d2 g2|f2 ef g3:|

